public/img/assets/icons/weather-conditions/partly-cloudy-day.svg

<svg width="120" height="120" viewBox="0 0 120 120" fill="none" xmlns="http://www.w3.org/2000/svg">
<path d="M40.4835 51C40.4835 60.1113 47.8953 67.5231 57.0066 67.5231C66.1179 67.5231 73.5297 60.1113 73.5297 51C73.5297 41.8887 66.1179 34.4769 57.0066 34.4769C47.8953 34.4769 40.4835 41.8887 40.4835 51ZM53.7 20C53.7 18.8954 54.5954 18 55.7 18H58.3C59.4046 18 60.3 18.8954 60.3 20V25.9C60.3 27.0046 59.4046 27.9 58.3 27.9H55.7C54.5954 27.9 53.7 27.0046 53.7 25.9V20ZM24 49.7C24 48.5954 24.8954 47.7 26 47.7H31.9C33.0046 47.7 33.9 48.5954 33.9 49.7V52.3C33.9 53.4046 33.0046 54.3 31.9 54.3H26C24.8954 54.3 24 53.4046 24 52.3V49.7ZM80.1 49.7C80.1 48.5954 80.9954 47.7 82.1 47.7H88C89.1046 47.7 90 48.5954 90 49.7V52.3C90 53.4046 89.1046 54.3 88 54.3H82.1C80.9954 54.3 80.1 53.4046 80.1 52.3V49.7ZM72.4128 33.7494C71.6318 32.9684 71.6318 31.702 72.4128 30.921L76.587 26.7468C77.368 25.9658 78.6344 25.9658 79.4154 26.7468L81.2532 28.5846C82.0342 29.3656 82.0342 30.632 81.2532 31.413L77.079 35.5872C76.298 36.3682 75.0316 36.3682 74.2506 35.5872L72.4128 33.7494ZM39.7497 35.5902C38.9686 36.3713 37.702 36.3712 36.921 35.5898L32.7499 31.4168C31.969 30.6355 31.9694 29.3691 32.7508 28.5882L34.5905 26.7498C35.3719 25.9689 36.6384 25.9695 37.4191 26.7509L41.5885 30.9243C42.3689 31.7054 42.3686 32.9713 41.5879 33.752L39.7497 35.5902Z" fill="#FDF72A"/>
<path d="M85.1875 70.6C85.0949 70.6 85.0178 70.6306 84.9406 70.6306C85.1103 69.8344 85.1875 69.0075 85.1875 68.15C85.1875 61.3819 79.6637 55.9 72.8438 55.9C69.048 55.9 65.6998 57.6303 63.4316 60.31C60.5617 54.7975 54.8373 51 48.1563 51C38.6053 51 30.875 58.6716 30.875 68.15C30.875 69.2678 30.9984 70.3397 31.199 71.3963C25.2895 73.3256 21 78.7922 21 85.3C21 93.4156 27.6348 100 35.8125 100H85.1875C93.3652 100 100 93.4156 100 85.3C100 77.1844 93.3652 70.6 85.1875 70.6Z" fill="#3FD5FE"/>
<path fill-rule="evenodd" clip-rule="evenodd" d="M72.7882 55.9001C69.0154 55.9169 65.6887 57.6434 63.4316 60.31C60.5617 54.7975 54.8373 51 48.1562 51C45.4354 51 42.8623 51.6226 40.5736 52.7321C41.4421 61.0324 48.4802 67.5231 57.0066 67.5231C64.4125 67.5231 70.6956 62.6262 72.7882 55.9001Z" fill="#F7D056"/>
</svg>

<svg width="120" height="120" fill="none" xmlns="http://www.w3.org/2000/svg"><path d="M40.483 51c0 9.111 7.412 16.523 16.524 16.523 9.11 0 16.523-7.412 16.523-16.523s-7.412-16.523-16.523-16.523c-9.112 0-16.523 7.412-16.523 16.523ZM53.7 20a2 2 0 0 1 2-2h2.6a2 2 0 0 1 2 2v5.9a2 2 0 0 1-2 2h-2.6a2 2 0 0 1-2-2V20ZM24 49.7a2 2 0 0 1 2-2h5.9a2 2 0 0 1 2 2v2.6a2 2 0 0 1-2 2H26a2 2 0 0 1-2-2v-2.6Zm56.1 0a2 2 0 0 1 2-2H88a2 2 0 0 1 2 2v2.6a2 2 0 0 1-2 2h-5.9a2 2 0 0 1-2-2v-2.6Zm-7.687-15.95a2 2 0 0 1 0-2.829l4.174-4.174a2 2 0 0 1 2.828 0l1.838 1.838a2 2 0 0 1 0 2.828l-4.174 4.174a2 2 0 0 1-2.828 0l-1.838-1.838ZM39.75 35.59a2 2 0 0 1-2.829 0l-4.171-4.173a2 2 0 0 1 0-2.829l1.84-1.838a2 2 0 0 1 2.83 0l4.169 4.174a2 2 0 0 1-.001 2.828L39.75 35.59Z" fill="#FDF72A"/><path d="M85.188 70.6c-.093 0-.17.03-.247.03.17-.796.246-1.623.246-2.48 0-6.768-5.523-12.25-12.343-12.25-3.796 0-7.144 1.73-9.412 4.41-2.87-5.513-8.595-9.31-15.276-9.31-9.55 0-17.281 7.672-17.281 17.15 0 1.118.123 2.19.324 3.246C25.289 73.326 21 78.792 21 85.3c0 8.116 6.635 14.7 14.813 14.7h49.374C93.365 100 100 93.416 100 85.3s-6.635-14.7-14.813-14.7Z" fill="#3FD5FE"/><path fill-rule="evenodd" clip-rule="evenodd" d="M72.788 55.9c-3.773.017-7.1 1.743-9.356 4.41-2.87-5.513-8.595-9.31-15.276-9.31-2.72 0-5.294.623-7.582 1.732.868 8.3 7.906 14.791 16.433 14.791 7.405 0 13.689-4.897 15.781-11.623Z" fill="#F7D056"/></svg>
